X:1
T:Holy, holy, holy, Lord God Almighty
T:C Major            Asahel Benham, 1783
T:Transcribed from Brownson's Select Harmony, 1783.
T:From Sundry Parts of Revelation
%%score [ 1 2 3 4 ]
L:1/8
Q:1/4=120
M:4/4
K:C
V:1 treble nm="Tr." snm="Tr."
V:2 treble nm="C." snm="C."
V:3 treble-8 nm="Tenor" snm="T."
V:4 bass nm="Bass" snm="B."
V:1
 z8 | z8 | z8 | z8 | z8 | z8 | z8 | z8 | z8 | z8 | z8 | z8 | z8 | z8 | z8 | z8 | z8 | z8 | z8 | %19
 z8 | z8 | z8 | z8 | z8 | z8 | z8 | z8 | z8 | z8 | z8 | z8 | z8 | z8 | z8 | z8 | z8 | z8 | %37
 z4"_Bles   –   sing,       bles  –  sing,                                                 bles – sing  and" (G4 | %38
 B2) B2 z4 | (B4 c2) c2 |[Q:1/4=100] z8 | z4 d2 d d | %42
"_ho                 –                 nor   and  glo–ry   and     pow'r            be    unto  him  who  sit  –  teth   up      –     on    the     throne,  and  un–to the  Lamb  for –   ev – er,     for –" (g>agf e2) e d | %43
 c2 c2 (B2 d2) | (e3 d c4) | c4 B2 d2 | e4 d4 | c>d ef (g3 e) | c4 d4 | e6 e2 | c4 c2 d2 | e6 d>c | %52
 B2 G4 c2 | %53
"_– ev         –         –         –         –         er                  for –  ev – er   more,     for – ev –er,     for – ev –er,                  for – ev     –          –         –         –         –     er   more." (d>edc B>cBc | %54
 d2) g4 c2 | c2 c2 c4- | c4 c4 | B2 B2 z2 B2 | G2 G2 z4 | z2 c2 (g>agf | e>fed c2) d2 | e8 | z8 | %63
[Q:1/4=120] z4"_Praise ______________ our  God,  all  ye   his  ser–vants, and all that fear him both small ___ and great.       Al – le – lu – ia, for the Lord     God      om – ni–po–tent" (d4 | %64
 d3 B G3 B | d4) B4 | c8 | e4 c4 | d4 B4 | G4 G4 | c4 c4 | e4 A4 | d4 (B3 A | G4) B4 | c8 | %75
[M:3/2] G3 G G4 G4 | B2 B2 (c4 d4) | d12 | g4 g2 g2 g4 | %79
"_reign     –    eth.                                                         Let       us        re   –   joice, _______________  re   –  joice, ________  re – joice. ________rejoice, re – joice _________" (c2 f2 d8) | %80
 e12 |[M:2/2] z8 | z8 | d4 d2 d2 | (d3 B G3 B | d2) d2 (d>edc | d2) g2 (d>cBA | B2) G2 d2 d2 | %88
 (c>dcd e4) | %89
"_and     be       glad,                               be                  glad, ____________________ and give ho         –          –         –       nor         un      –       to   him.  Hal – le  –  lu – jah," d2 B2 (G4 | %90
 c8) | g4 (g>agf | e>fed c4) | d2 d2 (edce | fedB G2) c2 | (B3 A G2) G2 | G8 | G6 G2 | G2 G2 z4 | %99
"_Hal   –  le   –  lu – jah,          Hal    –   le    –   lu – jah,   A     –     men.          A         –         –         –         –         –         –         –         –         –    men.           A      –      men." B6 cB | %100
 c2 c2 z4 | e6 ed | e2 e2 d4 | d4 z4 | (cedc BdcB | cBcd e2 c2 | d8) | e8 | %108
[M:4/4][Q:1/4=70] (f4 d4) | c8 |] %110
V:2
 z8 | z8 | z8 | z8 | z8 | z8 | z8 | z8 | z8 | z8 | z8 | z8 | z8 | z8 | z8 | z8 | z8 | z8 | z8 | %19
 z8 | z8 | z8 | z8 | z8 | z8 | z8 | z8 | z8 | z8 | z8 | z8 | z8 | z8 | z8 | z8 | z8 | z8 | z4 (E4 | %38
 G2) G2 z4 | G6 G2 | z8 | z8 | %42
"_bles – sing  and  ho    –    nor  and  glo–ry  and     pow'r             be    unto  him  who  sit  –  teth   up      –     on    the     throne,  and  un–to the  Lamb  for –   ev – er,     for –" G2 G G G>F E F | %43
 G2 G2 G4 | G8 | A4 G2 G2 | G4 G4 | G2 A2 (B2 G2) | E4 A4 | G6 G2 | F4 F2 F2 | G6 G2 | %52
 G2 G2 z2 E2 | %53
"_– ev   –  er,                for   –   ev      –         –         –         –        er  more,    for – ev –er,     for –ev–er,  ev–er,        for – ev     –          –         –         –         –     er   more." A2 A2 z2 G2 | %54
 (G>FEF G>AGE | F2) F2 G4- | G4 G4 | G2 G4 G2 | G2 G2 G2 C2 | z2 G2 G4- | G6 G2 | G8 | z8 | z8 | %64
 z8 | z8 | z8 | z8 | z8 | z8 | z8 | z8 | z8 | z8 | z8 | %75
[M:3/2]"_Al – le – lu – ia, for the Lord     God      om – ni–po–tent" G3 G G4 G4 | G2 G2 A8 | %77
 (B8 G4) | G4 G2 c2 (B2 G2) | %79
"_reign     –    eth.                                                                                             Let       us        re   –   joice, ________________   re – joice, __________________________________" (A4 G8 | %80
 G12) |[M:2/2] z8 | z8 | z8 | G4 G2 G2 | (G2 FE D2 EF | G2) G2 (G>AGF | G8- | G8- | %89
"_____________________________       and     be       glad, ___________________   and give ho         –          –         –       nor         un      –      to   him.  Hal – le  –  lu – jah," G8- | %90
 G8) | G2 E2 (C4 | G8) | A2 G2 (G4 | A4 G2) A2 | G6 F2 | E8 | G6 G2 | G2 G2 z4 | %99
"_Hal   –  le   –  lu – jah,          Hal    –   le    –   lu – jah,                                      A        –        men.                            A   –  men.             A     –      men.            A     –     men." G6 G2 | %100
 G2 G2 z4 | G6 AB | c2 c2 z4 | z8 | A4 A4 | z2 G2 G4 | G8 | E8 |[M:4/4] (A4 G4) | G8 |] %110
V:3
 z8 | z8 | z8 | z8 | z8 | z8 | z8 | z8 | z8 | %9
 z4"_Thou art  wor      –       thy,  O    Lord,  to re–ceive  glo–ry and" G4 | G4 (A>B c2 | %11
 B2) G2 (B2 d2) | c8 | c2 d2 (e2 c2) | d4 c2 B2 | %15
"_honor and pow'r, For thou hast cre – a    –    ted    all   things.   Thou art worthy,  O  Lamb  of    God,     to   take the book and  open   the      seals  there–of,   For thou wast" c4 B2 A2 | %16
 G6 G2 | c4 c2 B2 | (c3 f e2) dc | d4 c4- | c4 c4 | c4 A4 | B4 d4 | B4 d4 | G4 (A2 B2) | %25
 c2 c2 c2 A2 | d4 d2 d2 | d4 ^c4 | d4 z2 G2 | G4 G4 | %30
"_slain ______  and  hast  re – dee          –         med  us        to         God      by   thy  blood.         Bles   –   sing,       bles  –  sing,         blessing and ho         –         –     nor  and" (A4 G4 | %31
 c6) c2 | c2 c2 (c>fef | d2) d2 (d2 B2) | (c2 f2) (e2 c2) | B4 d4 | c8 | z4 (c4 | d2) d2 z4 | %39
 (d4 e2) e2 | z4 c2 c c | (d>edc d2) B d | %42
"_glo     –         –         –         –         –       ry   and      pow'r            be    unto  him  who  sit  –  teth   up      –     on    the     throne,  and  un–to the  Lamb  for –   ev – er,     for –" (e>fec g>agf | %43
 e2) c2 d4 | (c3 d e4) | f4 d2 B2 | c4 d4 | e2 c2 d4 | e4 f4 | g6 G2 | c4 c2 B2 | c6 d2 | %52
 e2 g4 e2 | %53
"_– ev         –         –         –         –         er                  for –  ev – er   more,     for – ev –er,     for – ev –er,                  for – ev     –          –         –         –         –     er   more." (f>gfe d>edc | %54
 B2) G4 c2 | A2 A2 G4- | G4 c4 | d2 d2 z2 d2 | e2 d2 z4 | z2 e2 (e>fef | g>agf e2) d2 | c8 | z8 | %63
 z8 | z8 | z8 | z8 | z8 | z8 | z8 | z8 | z8 | z8 | z8 | z8 | %75
[M:3/2]"_Al – le – lu – ia, for the Lord     God      om – ni–po–tent" c3 d e4 c4 | d2 e2 f8 | %77
 g12 | d4 e2 e2 (d2 c2) | %79
"_reign     –    eth.                         Let         us    re  –   joice, ______________   re  –  joice, ________  re  –  joice. ________   rejoice,                               re  – joice, _______  re –" (c4 B8) | %80
 c12 |[M:2/2] z8 | d4 d2 d2 | (d3 B G3 B | d2) d2 (d>edc | d2) g2 (d>cBA | B2) G2 d4 | z4 z2 d2 | %88
 (e>fed e2) c2 | %89
"_– joice _______ and be  glad, __________________________      glad, _________ and give ho         –          –         –       nor        un      –      to   him.  Hal – le  –  lu – jah," (d>edc d4) | %90
 g2 e2 (c4 | e8) | (g>agf e4) | f2 d2 (cdec | defd g2) f>e | (d4 c2) B2 | c8 | c6 B2 | c2 c2 z4 | %99
"_Hal   –  le   –  lu – jah,          Hal    –   le    –   lu – jah,   A     –     men.          A         –         –         –         –         –         –         –         –         –    men.           A      –      men." d6 cd | %100
 e2 e2 z4 | g6 ef | g2 g2 (f3 d) | d4 z4 | (egfe dfed | cdef g2 fe | d8) | c8 |[M:4/4] (c4 B4) | %109
 c8 |] %110
V:4
"_Ho – ly,  ho– ly,  holy, Lord God Almighty,  which  was, ____ and  is, _____ and  is _____  to  come." G,6 G,2 | %1
 G,6 G,2 | G,2 G,2 C4 | C4 (G,2 F,2) | E,2 C,4 D,E, | (F,3 G, A,2) F,2 | (D,3 E, F,2) D,2 | %7
 (E,3 F, G,2) G,2 | C,8 | z8 | z8 | z8 | z8 | z8 | z8 | z8 | z8 | z8 | z8 | z8 | z4 C,4 | F,4 F,4 | %22
 G,4 G,4 | G,4 (G,2 D,2) | (E,2 C,2) (F,2 D,2) | C,2 C,2 F,2 F,2 | G,4 G,2 G,>A, | B,4 A,4 | %28
 G,4 z2 E,2 | C,4 C,4 | (F,4 E,4 | F,6) F,2 | C,2 C,2 (C,>D,E,C, | G,2) G,2 G,4 | %34
 (F,2 D,2) (E,2 F,2) | G,4 G,4 | C,8 | %37
 z4"_Bles   –   sing,       bles  –  sing,                          bles – sing  and  ho        –" (C,4 | %38
 G,2 G,2) z4 | (G,4 C2) C2 | z8 | G,2 G, G, (G,>A,B,G, | %42
"_______ and  glo     –         –         –         ry  and      pow'r            be    unto  him  who  sit  –  teth   up      –     on    the     throne,  and  un–to the  Lamb  for –   ev – er,     for –" C2) C C (C>DCD | %43
 C2) C,2 G,4 | C,8 | F,4 G,2 G,2 | C4 G,4 | E,2 A,2 G,4 | C4 (A,3 C) | C6 E,2 | F,4 F,2 D,2 | %51
 C,6 G,2 | B,2 C2 z2 C2 | %53
"_– ev   –  er,                for   –   ev      –         –         –         –        er  more,    for – ev –er,     for –ev–er,  ev–er,        for – ev     –          –         –         –         –     er   more,  A – men." D2 D2 z2 G,2 | %54
 (G,>A,G,F, E,>F,E,C, | F,2) F,2 C,4- | C,4 C,4 | G,2 G,4 G,2 | C2 G,2 C2 C,2 | z2 C2 (C>DCD | %60
 E>FEF G2) E,2 | C8 | D4 D4 | z8 | z8 | z8 | z8 | z8 | z8 | z8 | z8 | z8 | z8 | z8 | z8 | %75
[M:3/2]"_Al – le – lu – ia, for the Lord     God      om – ni–po–tent" C,3 C, C,4 C,4 | %76
 G,2 G,2 (F,4 D,4) | G,12 | G,4 C2 C2 (G,2 E,2) | %79
"_reign     –    eth.      Let  us  re – joice, ____________  re  –  joice, _______________________________________________________________________  and     be      glad ___" (F,8 G,4) | %80
 C,12 |[M:2/2] G,4 G,2 G,2 | (G,2 F,E, D,2 E,F, | G,2) G,2 (G,>A,G,F, | G,8- | G,8- | G,8- | G,8) | %88
 C2 G,2 (C,4 | %89
"_________________  be     glad, _________________________________________     and give ho         –          –         –       nor        un      –      to   him.  Hal – le  –  lu – jah," G,8) | %90
 C,4 (C,>D,C,D, | E,>F,E,F, G,>F,E,D, | C,8) | F,2 G,2 (E,2 C,2 | F,2 D,2 E,2) F,2 | %95
 (G,3 F, E,2) G,2 | C,8 | C,6 D,E, | F,2 C,2 z4 | %99
"_Hal   –  le   –  lu – jah,          Hal    –   le    –   lu – jah,   A      –     men.         A        –        men.                            A   –  men.             A     –      men.            A     –     men." G,6 A,B, | %100
 C2 C,2 z4 | %101
"_______________________________________________________________\nEdited by B. C. Johnston, 2018\n   1. Measure 49, \nBass\n: C-B-C changed to C-A-C.\n   2. Measure 53, \nBass\n: first note changed from C to B.\n   3. Measures 91b-92, Bass: tied notes at C or above transposed down an octave." C6 CD | %102
 E2 C2 D4 | G,4 z4 | C4 D4 | z2 B,2 C4 | (G,4 G,,4) | C,8 |[M:4/4] (F,4 G,4) | C,8 |] %110

